docs/image/profile.svg

<svg width="24" height="24" fill="none" xmlns="http://www.w3.org/2000/svg"><path d="M12 12c3.315 0 6-2.685 6-6s-2.685-6-6-6-6 2.685-6 6 2.685 6 6 6Zm0 3c-4.005 0-12 2.01-12 6v3h24v-3c0-3.99-7.995-6-12-6Z" fill="#2D2D2D"/></svg>

<svg width="24" height="24" viewBox="0 0 24 24" fill="none" xmlns="http://www.w3.org/2000/svg">
<path d="M12 12C15.315 12 18 9.315 18 6C18 2.685 15.315 0 12 0C8.685 0 6 2.685 6 6C6 9.315 8.685 12 12 12ZM12 15C7.995 15 0 17.01 0 21V24H24V21C24 17.01 16.005 15 12 15Z" fill="#2D2D2D"/>
</svg>
